!!!COM: Bach, Johann Sebastian
!!!OTA: Das wohltemperirte Clavier
!!!OPR: Das wohltemperierte Klavier
!!!OTL: Fuga 13, Vol. 1
!!!XEN: The Well-Tempered Clavier, Volume 1, Fugue 13.
!!!ONB: F-sharp major, 3-part
!!!SCT: BWV 858b
!!!YEC: Copyright 1994, David Huron
!!!YEM: Rights to all derivative electronic formats reserved.
**kern	**kern	**kern
*staff2	*staff1	*staff1
*clefF4	*clefG2	*clefG2
*k[f#c#g#d#a#e#]	*k[f#c#g#d#a#e#]	*k[f#c#g#d#a#e#]
*M4/4	*M4/4	*M4/4
*F#:	*F#:	*F#:
*MM72	*MM72	*MM72
=1	=1	=1
1r	1r	8r
.	.	8cc#
.	.	8ff#
.	.	8ee#
.	.	8ff#
.	.	16ee#
.	.	16dd#
.	.	8.cc#M
.	.	32b
.	.	32cc#
=2	=2	=2
1r	1r	4dd#
.	.	8r
.	.	8cc#
.	.	8b
.	.	8a#
.	.	8g#
.	.	8cc#
=3	=3	=3
1r	8r	8a#
.	8f#	16f#
.	.	16ff#
.	8cc#	16ee#
.	.	16ff#
.	8b#	16gg#
.	.	16dd#
.	8cc#	16ee#
.	.	16ff#
.	16b#	[8gg#
.	16a#	.
.	8.g#M	16gg#]
.	.	16ff#
.	.	16ee#
.	32f#	16dd#
.	32g#	.
=4	=4	=4
1r	4a#	16cc#
.	.	16dd#
.	.	16ee#
.	.	16b#
.	8r	16cc#
.	.	16dd#
.	8g#	16ee#
.	.	16cc#
.	8f#	16a#
.	.	16b#
.	8e#	4cc#
.	8d#	.
.	8g#	8b#
=5	=5	=5
8r	8e#	[2cc#
8C#	16c#	.
.	16bn	.
8F#	16a#	.
.	16b	.
8E#	16cc#	.
.	16g#	.
8F#	16a#	8cc#]
.	16b	.
16E#	[8cc#	16cc#
16D#	.	16dd#
8.C#M	16cc#]	4ee#
.	16b	.
.	16a#	.
32BB	16g#	.
32C#	.	.
=6	=6	=6
4D#	16f#	4ff#
.	16g#	.
.	16a#	.
.	16e#	.
8r	16f#	8r
.	16g#	.
8C#	16a#	8a#
.	16f#	.
8BB	16d#	8g#
.	16e#	.
8AA#	4f#	8a#
8GG#	.	8b
8C#	8e#	16a#
.	.	16g#
=7	=7	=7
8FF#	4f#	16a#
.	.	16cc#
8F#	.	16cc#
.	.	16a#
8E#	8r	16g#
.	.	16cc#
8C#	8e#	16cc#
.	.	16g#
16F#	4f#	8a#
16A#	.	.
16A#	.	8cc#
16F#	.	.
16D#	8r	[4ff#
16F#	.	.
16F#	8a#	.
16D#	.	.
=8	=8	=8
8BB#	16dd#	8ff#]
.	16g#	.
8C#	16g#	4ee#
.	16cc#	.
[4F#	16a#	.
.	16f#	.
.	16f#	16dd#
.	16a#	16cc#
16F#]	4g#	8b#
16G#	.	.
16B#	.	8dd#
16G#	.	.
16E#	8r	[4gg#
16G#	.	.
16G#	8b#	.
16E#	.	.
=9	=9	=9
16C##	4a#	8gg#]
16A#	.	.
16A#	.	16ff#
16F#	.	16ee#
16D#	8r	[4ff#
16F#	.	.
16F#	8a#	.
16D#	.	.
16BB#	4g#	8ff#]
16G#	.	.
16G#	.	16ee#
16E#	.	16dd#
16C#	8r	[4ee#
16E#	.	.
16E#	8g#	.
16C#	.	.
=10	=10	=10
16AA#	[4f#	8ee#]
16C#	.	.
16C#	.	8ee#
16AA#	.	.
8FF#	16f#]	8dd#
.	16g#	.
[8F#	16a#	8cc#
.	16f#	.
16F#_	4d#	8b#
16F#]	.	.
16E#	.	8g#
16D#	.	.
16C#	8r	[4cc#
16D#	.	.
16E#	8g#	.
16C#	.	.
=11	=11	=11
16AA#	8f#	4cc#_
16BB#	.	.
16C#	8e#	.
16AA#	.	.
8FF#	8d#	16cc#]
.	.	8cc#
8GG#	8d#	.
.	.	16b#
4CC#	16e#	8cc#
.	16g#	.
.	16cc#	8cc#
.	16bn	.
4r	16a#	8ff#
.	16b	.
.	16cc#	8ee#
.	16g#	.
=12	=12	=12
8r	16a#	8ff#
.	16b	.
16F#	[8cc#	16ee#
16G#	.	16dd#
16A#	16cc#]	4cc#
16F#	16b	.
16F#	16a#	.
16A#	16g#	.
16B	16f#	4dd#
16F#	16g#	.
16F#	16a#	.
16B	16e#	.
16c#	16f#	8r
16F#	16g#	.
16F#	16a#	8cc#
16c#	16e#	.
=13	=13	=13
16d#	4f#	8b
16F#	.	.
16F#	.	8a#
16d#	.	.
16e#	[4g#	8g#
16F#	.	.
16F#	.	8cc#
16e#	.	.
16f#	8g#]	8a#
16e#	.	.
16d#	8f#	8a#
16c#	.	.
16B	4r	8dd#
16g#	.	.
16g#	.	8cc##
16B	.	.
=14	=14	=14
16A#	8r	4dd#
16f#	.	.
16f#	8a#	.
16A#	.	.
16G#	8dd#	8r
16e#	.	.
16e#	8cc##	8ee#
16G#	.	.
16F#	8dd#	8ff#
16G#	.	.
16F#	8ee#	8gg#
16E#	.	.
16D#	8ff#	8aa#
16E#	.	.
16F#	8dd#	8ff#
16D#	.	.
=15	=15	=15
16G#	8b#	4dd#
16A#	.	.
16G#	8g#	.
16F#	.	.
16E#	8cc#	8r
16F#	.	.
16G#	8b#	8gg#
16E#	.	.
16A#	8cc#	4ee#
16B#	.	.
[8c#	16b#	.
.	16a#	.
16c#]	8.g#	8r
16B#	.	.
16A#	.	8ee#
16G#	32f#	.
.	32g#	.
=16	=16	=16
16F#	4a#	16dd#
16G#	.	16b#
16A#	.	16cc#
16E#	.	16ee#
16F#	8r	16dd#
16G#	.	16b#
16A#	8g#	[8cc#
16F#	.	.
8D#	8f#	16cc#]
.	.	16b#
16E#	8e#	4cc#
16F#	.	.
8G#	8d#	.
8GG#	8g#	8b#
=17	=17	=17
8C#	16e#	4cc#
.	16g#	.
8c#	16g#	.
.	16e#	.
8B#	16d#	8r
.	16g#	.
8G#	16g#	8b#
.	16d#	.
8c#	4e#	16cc#
.	.	16ee#
8A#	.	16ee#
.	.	16cc#
8G##	8r	16b#
.	.	16ee#
8E#	8g##	16ee#
.	.	16b#
=18	=18	=18
16A#	4a#	8cc#
16c#	.	.
16c#	.	8ee#
16A#	.	.
16F#	8r	[4aa#
16A#	.	.
16A#	8cc#	.
16F#	.	.
16D#	4bn	8aa#]
16B	.	.
16B	.	16gg#
16G#	.	16ff#
16E#	8r	[4gg#
16G#	.	.
16G#	8b	.
16E#	.	.
=19	=19	=19
16C##	4a#	8gg#]
16A#	.	.
16A#	.	16ff#
16F#	.	16ee#
16D#	8r	[4ff#
16F#	.	.
16F#	8a#	.
16D#	.	.
16BB	[2g#	8ff#]
16D#	.	.
16D#	.	8ff#
16BB	.	.
16GG#	.	8ee#
16BB	.	.
16BB	.	8dd#
16GG#	.	.
=20	=20	=20
8AA#	16g#]	8cc##
.	16b	.
8AA#	16a#	8r
.	16g#	.
8D#	16f#	4r
.	16g#	.
8C##	16a#	.
.	16e#	.
8D#	16f#	8r
.	16g#	.
16C#	8a#	16d#
16BB	.	16e#
8.AA#	8r	16f#
.	.	16d#
.	8dd#	16d#
32GG#	.	16f#
32AA#	.	.
=21	=21	=21
4BB	2.dd#	16g#
.	.	16d#
.	.	16d#
.	.	16g#
8r	.	16a#
.	.	16d#
8AA#	.	16d#
.	.	16a#
8GG#	.	16b
.	.	16d#
8FF#	.	16d#
.	.	16b
8EE#	[4g#	16cc##
.	.	16d#
8AA#	.	16d#
.	.	16cc##
=22	=22	=22
8DD#	16g#]	4dd#
.	16f#	.
8FF#	16g#	.
.	16a#	.
[4GG#	4b	16r
.	.	16ee#
.	.	16ff#
.	.	16gg#
16GG#]	8a#	16cc##
16E#	.	16bb
16F#	16r	8aa#
16G#	[16dd#	.
8A#	8dd#]	8ff#M
8AA#	8cc##	16ee#
.	.	16dd#
=23	=23	=23
16D#	8dd#	8dd#
16A#	.	.
16A#	8r	8ff#
16F#	.	.
16D#	4r	8bb
16F#	.	.
16F#	.	8aa#
16D#	.	.
16GG#	8r	[2bb
16d#	.	.
16d#	8dd#	.
16B	.	.
16G#	8gg#	.
16B	.	.
16B	8ff#	.
16G#	.	.
=24	=24	=24
16E#	[2gg#	8bb]
16G#	.	.
16G#	.	8ee#
16E#	.	.
16C#	.	8aa#
16E#	.	.
16E#	.	8gg#
16C#	.	.
16FF#	8gg#]	[2aa#
16c#	.	.
16c#	8cc#	.
16A#	.	.
16F#	8ff#	.
16A#	.	.
16A#	8ee#	.
16F#	.	.
=25	=25	=25
16D#	8ff#	8aa#]
16F#	.	.
16F#	8cc#	8aa#
16D#	.	.
16BB	[4dd#	8gg#
16D#	.	.
16D#	.	8ff#
16BB	.	.
8C#	16dd#]	4ee#
.	16g#	.
8CC#	16g#	.
.	16cc#	.
8r	16cc#	[4een
.	16g#	.
16c#	16g#	.
16B	16b	.
=26	=26	=26
8c#	2a#	16een]
.	.	16cc#
8F#	.	16cc#
.	.	16ee
8B	.	16dd#
.	.	16b
8A#	.	16b
.	.	16dd#
8B	2g#	16dd#
.	.	16b
8E#	.	16b
.	.	16dd#
8A#	.	16cc#
.	.	16a#
8G#	.	16a#
.	.	16cc#
=27	=27	=27
8A#	2f#	16cc#
.	.	16a#
8D#	.	16a#
.	.	16cc#
8G#	.	16b
.	.	16g#
8F#	.	16g#
.	.	16b
8G#	4e#	16b
.	.	16g#
8C#	.	16g#
.	.	16b
8F#	4r	16a#
.	.	16b
8E#	.	16cc#
.	.	16g#
=28	=28	=28
16F#	8r	8a#
16A#	.	.
16A#	8f#	8cc#
16F#	.	.
16D#	8b	8dd#
16F#	.	.
16F#	8a#	[8een
16D#	.	.
8BB	8b	16ee]
.	.	16dd#
8r	16a#	16cc#
.	16g#	16ee
8r	8.f#	16dd#
.	.	16b
8B	.	16b
.	32en	16dd#
.	32f#	.
=29	=29	=29
[1B	4g#	16een
.	.	16b
.	.	16b
.	.	16ee
.	8r	16ff#
.	.	16b
.	8f#	16b
.	.	16ff#
.	8en	16gg#
.	.	16b
.	8d#	16b
.	.	16gg#
.	8c#	16aa#
.	.	16b
.	8f#	16b
.	.	16aa#
=30	=30	=30
16B]	8d#	8bb
16A#	.	.
16G#	8d#	8r
16F#	.	.
16En	8g#	4r
16c#	.	.
16c#	8f##	.
16E	.	.
16D#	4g#	8r
16B	.	.
16B	.	8dd#
16D#	.	.
16C#	8r	8gg#
16A#	.	.
16A#	8a#	8ff##
16C#	.	.
=31	=31	=31
16BB	8b	8gg#
16C#	.	.
16BB	8cc#	8aa#
16AA#	.	.
16GG#	8dd#	8bb
16AA#	.	.
16BB	8b	8gg#
16GG#	.	.
16C#	4g#	8ee#
16D#	.	.
16C#	.	8cc#
16BB	.	.
16AA#	8r	8ff#
16BB	.	.
16C#	8cc#	8ee#
16AA#	.	.
=32	=32	=32
16D#	4a#	8ff#
16E#	.	.
[8F#	.	16ee#
.	.	16dd#
16F#]	8r	8.cc#M
16E#	.	.
16D#	8a#	.
16C#	.	32b
.	.	32cc#
16BB	16g#	4dd#
16C#	16e#	.
16D#	16f#	.
16AA#	16a#	.
16BB	16g#	8r
16C#	16e#	.
16D#	[8f#	8cc#
16BB	.	.
=33	=33	=33
8GG#	16f#]	8b
.	16e#	.
16AA#	4f#	8a#
16BB	.	.
8C#	.	8g#
8CC#	8e#	8cc#
8FF#	4f#	16a#
.	.	16cc#
8F#	.	16cc#
.	.	16a#
8E#	8r	16g#
.	.	16cc#
8C#	8e#	16cc#
.	.	16g#
=34	=34	=34
16F#	4f#	8a#
16A#	.	.
16A#	.	8cc#
16F#	.	.
16D#	8r	2ff#
16F#	.	.
16F#	8a#	.
16D#	.	.
8BB	16g#	.
.	16dd#	.
8GG#	16dd#	.
.	16b	.
8C#	16g#	4ee#
.	16cc#	.
8CC#	16cc#	.
.	16b	.
=35	=35	=35
1FF#;	1a#;	1ff#;
==	==	==
*-	*-	*-
!!!CDT: 1685/3/-1750/7/28
!!!OCY: Deutschland
!!!PPP: Coethen; Cothen; Co2then
!!!ODT: <1722//
!!!PDT: 1722
!!!AFR: fuga; fugue
!!!AST: polyphony
!!!AMT: simple quadruple
!!!SCA: Bach-Werke-Verzeichnis
!!!YOR: Bach Gesellschaft
!!!SMS: British Library, various
!!!AIN: cemba; clavi
!!!EEV: 1.0
!!!RDT: 1986 November 19
!!!YER: 1994 August 10
!!!EFL: 13/48
!!!VTS: 4125157580
